X:8
T:Clayhole Waltz
R:Waltz
S:Tony Mates, Wedgwood Ale House Jam
M:3/4
L:1/8
G:Key: A
Z:abc-transcription Josh Larios <hades@elsewhere.org>, 2020.01.15
Z:abc-copyright This transcription is licensed under a Creative Commons Attribution-ShareAlike 4.0 International License.
K:A
[P:A]y0 |: AB | "A"c2-cB cd | c2B2A2 | "D"f2-fe fg | f2e2c2 | 
"E"B2-BA Bc | B2A2B2 | "A"c2-cB AF | "(E)"E4 EA | 
"A"c2-cB cd | c2B2A2 | "D"f2-fe fg | f2e2c2 | 
"E"B2-BA Bc | B2A2 cB | "A"A2-AG AB | A4 :|
[P:B]y |: ce | "D"f2 d2-de | fg a2-af | "A"e2 c2-cB | c2B2A2 | 
"E"e2B2-Bc | B2A2B2 | "A"c2-cB AF | E2 Ac e2 | 
"D"f2 d2-de | fg a2-af | "A"e2 c2-cB | c2B2c2 | 
"E"e2B2-Bc | B2A2 cB | "A"A2A2 AB | A4 :|

